!!!CDT:
!!!PTL: Il primo libro de madrigali a cinque voci
!!!PPP: Ferrara
!!!PPR: Baldini
!!!PDT: 1585
!!!PUB-format:
!!!RISM: 1585-24
!!!rime: 1205
!!!AGN: Madrigal
!!!SCT: Trm1205b
!!!SCA: Trm1205b
!!!original-voices: 5
!!!extant-voices: 5
!!!complete: Y
!!!final: F
!!!COM: Gherardini, Arcangelo
!!!OTL: Tu moristi in quel seno
**kern	**text	**kern	**text	**kern	**text	**kern	**text	**kern	**text
*part5	*part5	*part4	*part4	*part3	*part3	*part2	*part2	*part1	*part1
*staff5	*staff5	*staff4	*staff4	*staff3	*staff3	*staff2	*staff2	*staff1	*staff1
*I"Basso	*	*I"Tenore	*	*I"Alto	*	*I"Quinto	*	*I"Canto	*
*I'B	*	*I'T	*	*I'A	*	*I'V	*	*I'C	*
*oclefF4	*	*oclefC4	*	*oclefC3	*	*oclefC1	*	*oclefC1	*
*clefF4	*	*clefGv2	*	*clefGv2	*	*clefG2	*	*clefG2	*
*k[b-]	*	*k[b-]	*	*k[b-]	*	*k[b-]	*	*k[b-]	*
*F:	*	*F:	*	*F:	*	*F:	*	*F:	*
*M4/2	*	*M4/2	*	*M4/2	*	*M4/2	*	*M4/2	*
*omet(C)	*	*omet(C)	*	*omet(C)	*	*omet(C)	*	*omet(C)	*
=1	=1	=1	=1	=1	=1	=1	=1	=1	=1
!!LO:TX:a:t=Seconda parte.
2.F	Tu	2.A	Tu	2.c	Tu	0r	.	0r	.
4E	mo-	4G	mo-	4c	mo-	.	.	.	.
2D	-ri-	2B-y	-ri-	2f	-ri-	.	.	.	.
4C	-sti in	4G	-sti in	4e	-sti in	.	.	.	.
4AA	quel	[4A	quel	4c	quel	.	.	.	.
=2	=2	=2	=2	=2	=2	=2	=2	=2	=2
2BB-y	se-	4A]	.	2d	se-	2r	.	2r	.
.	.	4G	se-	.	.	.	.	.	.
2AA	-no,	4A	-no,	2c	-no	4r	.	4r	.
.	.	2A	<Tu	.	.	2a	Tu	2cc	Tu
1r	.	.	.	1r	.	.	.	.	.
.	.	4G	mo-	.	.	4d	mo-	4b-y	mo-
.	.	2F	-ri-	.	.	2f	-ri-	2a	-ri-
=3	=3	=3	=3	=3	=3	=3	=3	=3	=3
0r	.	4c	-sti in	0r	.	4e	-sti in	4g	-sti in
.	.	4c	quel	.	.	4e	quel	4g	quel
.	.	2d	se-	.	.	2d	se-	2f	se-
.	.	1A	-no,>	.	.	4c	-no,	2e	-no,
.	.	.	.	.	.	8a	Pic-	.	.
.	.	.	.	.	.	8b-y	-cio-	.	.
.	.	.	.	.	.	4cc	-let-	8a	Pic-
.	.	.	.	.	.	.	.	8b-y	-cio-
.	.	.	.	.	.	4a	-ta,	4cc	-let-
=4	=4	=4	=4	=4	=4	=4	=4	=4	=4
0r	.	8A	Pic-	4r	.	2r	.	2a	-ta
.	.	8B-y	-cio-	.	.	.	.	.	.
.	.	4c	-let-	8e	Pic-	.	.	.	.
.	.	.	.	8f	-cio-	.	.	.	.
.	.	2.c	-ta	2g	-let-	8e	<Pic-	2r	.
.	.	.	.	.	.	8f	-cio-	.	.
.	.	.	.	.	.	4g	-let-	.	.
.	.	.	.	4g	-ta	4e	-ta	4r	.
.	.	4c	zan-	4a	zan-	2f	zan-	4cc	zan-
.	.	2c	-za-	2g	-za-	.	.	2cc	-za-
.	.	.	.	.	.	4e	-za-	.	.
=5	=5	=5	=5	=5	=5	=5	=5	=5	=5
4r	.	4F	-ra,	4a	-ra,	0f	-ra,>	2cc	-ra,
4F	O-	4A	O-	4a	O-	.	.	.	.
4D	-v'è	4d	-v'è	4f	-v'è	.	.	2r	.
4E	sì	4c	sì	4g	sì	.	.	.	.
4F	gran	4A	gran	4a	gran	.	.	1r	.
4E	for-	4c	for-	4g	for-	.	.	.	.
2r	.	4d	-tu-	4f	-tu-	.	.	.	.
.	.	4G	-n'il	4e	-n'il	.	.	.	.
=6	=6	=6	=6	=6	=6	=6	=6	=6	=6
1r	.	4B-y	ve-	4d	ve-	1r	.	1r	.
.	.	2F	-nir	4c	-nir	.	.	.	.
.	.	.	.	2B-y	me-	.	.	.	.
.	.	4E	me-	.	.	.	.	.	.
1FF	-no,	2F	-no,	1A	-no,	4r	.	4r	.
.	.	.	.	.	.	4a	O-	4cc	O-
.	.	[2F	il	.	.	4f	-v'è	4a	-v'è
.	.	.	.	.	.	4g	sì	4b-y	sì
=7	=7	=7	=7	=7	=7	=7	=7	=7	=7
0r	.	2F]	.	0r	.	4a	gran	4cc	gran
.	.	.	.	.	.	4g	for-	4b-y	for-
.	.	2F	ve-	.	.	4f	-tu-	4a	-tu-
.	.	.	.	.	.	4e	-n'il	4g	-n'il
.	.	2F	-nir	.	.	4d	ve-	4f	ve-
.	.	.	.	.	.	2c	-nir	4e	-nir-
.	.	2G	me-	.	.	.	.	2d	-me-
.	.	.	.	.	.	4BnX	me-	.	.
=8	=8	=8	=8	=8	=8	=8	=8	=8	=8
4r	.	0A	-no,	4r	.	2c	-no,	4c	-no,
4F	<O-	.	.	4A	O-	.	.	4a	<O-
4D	-v'è	.	.	4d	-v'è	2r	.	4f	-v'è
4E	si	.	.	4c	si	.	.	4g	si
4F	gran	.	.	4A	gran	1r	.	4a	gran
4E	for-	.	.	4c	for-	.	.	4g	for-
4D	-tu-	.	.	4d	-tu-	.	.	4f	-tu-
4C	-n'il	.	.	4A	-n'il	.	.	4e	-n'il
=9	=9	=9	=9	=9	=9	=9	=9	=9	=9
4BB-y	ve-	0r	.	4B-y	ve-	1r	.	4d	ve-
4AA	-nir	.	.	2F	-nir	.	.	4c	-nir
2GG	me-	.	.	.	.	.	.	2B-y	me-
.	.	.	.	4E	me-	.	.	.	.
1FF	-no,>	.	.	4F	-no,	4r	.	4c	-no,>
.	.	.	.	4F	il	4a	il	4cc	il
.	.	.	.	4B-y	ve-	4b-y	ve-	4dd	ve-
.	.	.	.	4A	-nir	[4f	-nir	4cc	-nir
=10	=10	=10	=10	=10	=10	=10	=10	=10	=10
2r	.	0r	.	2G	me-	4f]	.	2b-y	me-
.	.	.	.	.	.	4e	me-	.	.
4r	.	.	.	2F	-no,	4f	-no,	4a	-no,
4F	il	.	.	.	.	4cc	<il	4a	<il
1r	.	.	.	1r	.	4dd	ve-	4b-y	ve-
.	.	.	.	.	.	4cc	-nir	2f	-nir
.	.	.	.	.	.	2b-y	me-	.	.
.	.	.	.	.	.	.	.	4e	me-
=11	=11	=11	=11	=11	=11	=11	=11	=11	=11
4F	no,	4r	.	4r	.	4a	-no,>	4f	-no,>
4F	il	4A	<il	4f	<il	4a	<il	4cc	<il
4E	ve-	4c	ve-	4g	ve-	4g	ve-	4cc	ve-
4F	-nir	4F	-nir	4f	-nir	4cc	-nir	4a	-nir
2C	me-	2G	me-	2e	me-	2cc	me-	2g	me-
2FF	-no.	2F	-no.>	2f	-no.>	2cc	-no.>	2a	-no.>
=12	=12	=12	=12	=12	=12	=12	=12	=12	=12
1r	.	1r	.	1r	.	1r	.	1r	.
1BB-y	Qual	1F	Qual	[1f	Qual	1b-y	Qual	1dd	Qual
=13	=13	=13	=13	=13	=13	=13	=13	=13	=13
1.F	più	4A	più	0f]	.	1.a	più	1.cc	più
.	.	4B-y	.	.	.	.	.	.	.
.	.	4.c	.	.	.	.	.	.	.
.	.	8B-y	.	.	.	.	.	.	.
.	.	2A	.	.	.	.	.	.	.
2D	su-	2d	su-	.	.	2a	su-	2dd	su-
=14	=14	=14	=14	=14	=14	=14	=14	=14	=14
2.G	-bli-	2.B-y	-bli-	1g	più	0b-y	-bli-	0dd	-bli-
4A	.	4c	.	.	.	.	.	.	.
4B-y	.	4d	.	2f	su-	.	.	.	.
4A	.	4c	.	.	.	.	.	.	.
4G	.	4B-y	.	[2g	-bli-	.	.	.	.
4F	.	4A	.	.	.	.	.	.	.
=15	=15	=15	=15	=15	=15	=15	=15	=15	=15
2E-X	.	4G	.	2g]	.	1b-y	-me	2ee-i	.
.	.	4A	.	.	.	.	.	.	.
2D	.	2B-y	.	2f	-me	.	.	2dd	-me
1F	-sta-	4c	.	1f	sta-	1a	sta-	1cc	sta-
.	.	4d	-me	.	.	.	.	.	.
.	.	2c	sta-	.	.	.	.	.	.
=16	=16	=16	=16	=16	=16	=16	=16	=16	=16
4BB-y	-to,	4B-y	-to,	4f	-to,	1b-y	-to	1dd	-to
4.B-y	O	4.d	O	4.f	O	.	.	.	.
8B-y	qual	8d	qual	8f	qual	.	.	.	.
4B-y	sor-	4d	sor-	4f	sor-	.	.	.	.
4.G	-te	2.B-y	-te	2g	-te	1r	.	1r	.
8A	.	.	.	.	.	.	.	.	.
4B-y	.	.	.	2d	più	.	.	.	.
4G	più	4B-y	più	.	.	.	.	.	.
=17	=17	=17	=17	=17	=17	=17	=17	=17	=17
2F	ra-	2A	ra-	2f	ra-	2r	.	2r	.
2BB-y	-ra	2B-y	-ra	4d	-ra	4r	.	4r	.
.	.	.	.	4f	Fu	4b-y	Fu	4dd	Fu
1r	.	1r	.	4f	mai	4a	mai	4cc	mai
.	.	.	.	4c	con-	4g	con-	4b-y	con-
.	.	.	.	2d	-ces-	2f	-ces-	2a	-ces-
=18	=18	=18	=18	=18	=18	=18	=18	=18	=18
0r	.	1r	.	4d	-so	2.cc	-so	4a	-so
.	.	.	.	2f	da-	.	.	2a	da
.	.	.	.	4e	-be-	2cc	da	4g	be-
.	.	4r	.	4f	-ni-	.	.	4a	-ni-
.	.	2f	da	4d	-gno	4bnX	be-	4f	-gno,
.	.	.	.	4c	fa-	4cc	-ni-	[2cc	da
.	.	4e	be-	4c	-to,	4a	-gno	.	.
=19	=19	=19	=19	=19	=19	=19	=19	=19	=19
!	!	!	!	!	!	!LO:TX:a:t=Sic	!	!	!
0r	.	4f	-ni-	4r	.	4g	fa-	4cc]	.
.	.	4d	-gno	2f	<da	4a	-to,	4bnX	be-
.	.	4c	fa-	.	.	4a	da	2.cc	-ni-
.	.	4c	-to,	4e	be-	4g	be-	.	.
.	.	1r	.	4f	-ni-	4a	-ni-	.	.
.	.	.	.	4d	-gno	4f	-gno	4bni	.
.	.	.	.	4.c	fa-	2g	fa-	4.cc	-fa-
.	.	.	.	8d	.	.	.	16b-iL	.
.	.	.	.	.	.	.	.	16aJ	.
=20	=20	=20	=20	=20	=20	=20	=20	=20	=20
2r	.	2c	fa-	2e	.	1cc	-to?	2g	.
2D	Fe-	4F	-to?	4f	-to?>	.	.	2a	-to?
.	.	4A	Fe-	4f	Fe-	.	.	.	.
2.AA	-li-	2.A	-li-	2.e	-li-	1r	.	1r	.
4AA	-ce	4A	-ce	4e	-ce	.	.	.	.
=21	=21	=21	=21	=21	=21	=21	=21	=21	=21
2D	te,	2A	te,	2d	te,	4r	.	4r	.
.	.	.	.	.	.	4f	Fe-	4d	Fe-
2r	.	2r	.	2r	.	2e	-li-	2c#X	-li-
1r	.	1r	.	4r	.	4d	-ce,	4d	-ce,
.	.	.	.	4d	Fe-	4a	Fe-	4f	Fe-
.	.	.	.	4B-y	-li-	4b-y	-li-	4g	-li-
.	.	.	.	4c	-ce	4g	-ce	4e	-ce
=22	=22	=22	=22	=22	=22	=22	=22	=22	=22
2r	.	4r	.	2F	te,	2a	te,	2f	te,
.	.	4A	Fe-	.	.	.	.	.	.
4r	.	2G	-li-	2r	.	2r	.	2r	.
4E	li-	.	.	.	.	.	.	.	.
4F	-ce,	4F	-ce,	4r	.	1r	.	1r	.
4FF	Fe-	4F	Fe-	4A	<Fe-	.	.	.	.
4BB-y	-li-	4F	-li-	4B-y	-li-	.	.	.	.
4C	-ce	4E	-ce	4G	-ce	.	.	.	.
=23	=23	=23	=23	=23	=23	=23	=23	=23	=23
4FF	te,	4F	te,	4A	te,>	4r	.	4r	.
4FF	fe-	4F	fe-	4A	fe-	4cc	fe-	4a	fe-
2C	-li-	2G	-li-	2c	-li-	2cc	-li-	2g	-li-
4FF	-ce,	4A	-ce,	4c	-ce,	4a	-ce,	4f	-ce,
4FF	<fe-	4F	<fe-	4A	fe-	4a	<fe-	4cc	<fe-
2C	-li-	2G	-li-	2c	-li-	2g	-li-	2cc	-li-
=24	=24	=24	=24	=24	=24	=24	=24	=24	=24
1FF	-ce>	1F	-ce>	1c	-ce	1a	-ce>	1cc	-ce>
!!LO:TX:a:cj:t=[whole] &rarr; [whole-dot]
=25	=25	=25	=25	=25	=25	=25	=25	=25	=25
!!LO:TX:a:t=3
*M6/2	*	*M6/2	*	*M6/2	*	*M6/2	*	*M6/2	*
*omet(3)	*	*omet(3)	*	*omet(3)	*	*omet(3)	*	*omet(3)	*
0.r	.	1B-y	Più	0.r	.	1b-y	Più	1dd	Più
.	.	1c	che	.	.	1g	che	1cc	che
.	.	1G	nel	.	.	1g	nel	1b-y	nel
=26	=26	=26	=26	=26	=26	=26	=26	=26	=26
0.r	.	0d	ro-	0.r	.	0f#X	ro-	0a	ro-
.	.	1G	-go,	.	.	1g	-go,	1b-y	-go,
=27	=27	=27	=27	=27	=27	=27	=27	=27	=27
1GG	Più	1G	<Più	1d	Più	1g	<Più	1b-y	<Più
1GG	che	1G	che	1d	che	1g	che	1b-y	che
1D	nel	1A	nel	1d	nel	1fnXi	nel	1a	nel
=28	=28	=28	=28	=28	=28	=28	=28	=28	=28
0AA	ro-	0A	ro-	0c	ro-	0e	ro-	0a	ro-
1AA	-go	1E	-go>	1c#X	-go	1e	-go>	1a	-go>
!!LO:TX:a:cj:t=[whole-dot] &rarr; [whole]
=29	=29	=29	=29	=29	=29	=29	=29	=29	=29
!!LO:TX:a:t=C
*M4/2	*	*M4/2	*	*M4/2	*	*M4/2	*	*M4/2	*
*omet(C)	*	*omet(C)	*	*omet(C)	*	*omet(C)	*	*omet(C)	*
1r	.	4r	.	4r	.	1r	.	4r	.
.	.	4F	o-	4f	o-	.	.	4cc	o-
.	.	4.B-y	-ri-	4.d	-ri-	.	.	4.dd	-ri-
.	.	8A	-en-	8f	-en-	.	.	8cc	-en-
1r	.	4G	-tal	4d	-tal	1r	.	4b-y	-tal
.	.	4F	Fe-	4f	Fe-	.	.	4a	Fe-
.	.	2c	-ni-	2e	-ni-	.	.	2g	-ni-
=30	=30	=30	=30	=30	=30	=30	=30	=30	=30
4r	.	4F	-ce,	4f	-ce,	4r	.	4a	-ce,
4F	o-	4A	<o-	4f	<o-	4cc	o-	4a	o-
4.D	-ri-	4.d	-ri-	4.f	-ri-	4.dd	-ri-	4.a	-ri-
8E	-en-	8G	-en-	8g	-en-	8cc	-en-	8g	-en-
4F	-tal	4c	-tal	4f	-tal	4cc	-tal	4a	-tal
4FF	Fe-	4F	Fe-	4f	Fe-	4a	Fe-	4cc	Fe-
2C	-ni-	2G	-ni-	2e	-ni-	2g	-ni-	2cc	-ni-
=31	=31	=31	=31	=31	=31	=31	=31	=31	=31
0FFl	-ce.	0Fl	-ce.>	0fl	-ce.>	0al	-ce.	0ccl	-ce.
==	==	==	==	==	==	==	==	==	==
*-	*-	*-	*-	*-	*-	*-	*-	*-	*-
!!!system-decoration: [*]
!!!RDF**kern: i = editorial accidental
!!!RDF**kern: l = terminal long
!!!ENC: Emiliano Ricciardi
!!!END: 2019
!!!EED: Ricciardi, Emiliano
!!!EEV: 2019/02/22
!!!YEC: Copyright 2018 Emiliano Ricciardi, All Rights Reserved
!!!ONB: Translated from MusicXML on 2019/02/22 and edited by Craig Stuart Sapp
!!@@BEGIN:	VERSEDATA
!!@SOLERTI:	1205
!!@CATALOGNUM:	Trm1205
!!@LAST_MODIFIED: 2020/07/12
!!@ATTRIBUTION:	not secure
!!@TITLE:		Tu moristi in quel seno
!!@GENRE:		madrigale
!!@MANUSRC:	M<sub>7</sub>
!!@PRINTSRC:	27, 49, 70, 141, 145, 166, 169
!!@@BEGIN:	VERSES
!!@ABOUTIT:	Loda la zanzara.
!!@ABOUTEN:	It praises a mosquito.
!!@EDITOR:	Solerti, Angelo
!!@EDITION_TITLE: Le Rime di Torquato Tasso
!!@EDITION_LOC:	Bologna
!!@EDITION_PUB:	Romagnoli-Dall’Acqua
!!@EDITION_DATE:  1898-1902
!!@EDITION_VOL:	4
!!@EDITION_PAGE:  238
!!@TRANSLATOR:	Emiliano Ricciardi and Amyrose McCue Gill
!!@VERSE:
!!	Tu moristi in quel seno,
!!	Piccioletta zanzara,
!!	Dov'è sì gran fortuna il venir meno.
!!	Quando fin più beato
!!	O ver tomba più cara
!!	Fu mai concessa da benigno fato?
!!	Felice te, felice
!!	Più che nel rogo orïental fenice!
!!@TVERSE:
!!	You died in that breast,
!!	Tiny little mosquito,
!!	Where it is such a great fortune to expire.
!!	When was a more blessèd end
!!	Or indeed a more beloved tomb
!!	Ever granted by kind fate?
!!	Happy you, happy
!!	More than the oriental phoenix in its pyre!
!!@@END:		VERSES
!!@OTHER_CRIT_ED:   None
!!@ATTRIBUTION_ABOUT:	Not secure
!!		<br>
!!		Although attributed to Tasso in two independent prints published in 1586 by Tini and Vasalini, respectively, [Durante and Martellotti] {footnote: Durante and Anna Martellotti. <i>“Amorosa fenice”: La vita, le rime e la fortuna in musica di Girolamo Casone da Oderzo (c. 1528–1592)"</i> (Florence: Olschki, 2015).} have attributed it to Girolamo Casone because of the reference to the phoenix in last line.
!!@DATING:
!!@DEDICATEE:
!!@COMMENTARY:
!!@@END:		VERSEDATA
!!@@BEGIN:	SETTING
!!@CATALOGNUM:	Trm1205b
!!@RIMETITLE:	Tu moristi in quel seno
!!@SOLERTI:	1205
!!@COMPOSER:	Gherardini, Arcangelo
!!@PRINCEPSTITLE:	Il primo libro de madrigali a cinque voci
!!@PRINCEPSLOC:	Ferrara
!!@NORMLOC:	Ferrara
!!@NORMPUB:	Baldini
!!@NORMPUBSHORT:	Baldini
!!@PRINCEPSPUB:	Baldini
!!@PRINCEPSYEAR:	1585
!!@PRINCEPSRISM:	1585-24
!!@REPRINTS:	
!!@OVOICES:	5
!!@EXTANTVOICES:	5
!!@PARTBOOKS:	
!!@EXTPARTBOOKS:	
!!@OCLEFS:	C1,C1,C3,C4,F4
!!@OMENSURATION:	C; 3; C
!!@OKEYSIG:	b-
!!@FINAL:	F
!!@TIMPEDITOR:	Ricciardi, Emiliano
!!@NOTE:		
!!@@END:		SETTING
